dist/images/ico/ico_sprite_slide_arrow.svg

<svg width="28" height="142" viewBox="0 0 28 142" fill="none" xmlns="http://www.w3.org/2000/svg">
<path d="M18.5558 24.4212C19.1481 23.6528 19.1481 22.4116 18.5558 21.6432L12.6636 13.9988L18.5558 6.3543C19.1481 5.58592 19.1481 4.34468 18.5558 3.57629C17.9636 2.80791 17.0068 2.80791 16.4146 3.57629L9.44419 12.6196C8.85194 13.388 8.85194 14.6292 9.44419 15.3976L16.4146 24.4409C16.9916 25.1896 17.9636 25.1896 18.5558 24.4212Z" fill="#A4A4A4"/>
<path d="M9.44419 41.5788C8.85194 42.3472 8.85194 43.5884 9.44419 44.3568L15.3364 52.0012L9.44419 59.6457C8.85194 60.4141 8.85194 61.6553 9.44419 62.4237C10.0364 63.1921 10.9932 63.1921 11.5854 62.4237L18.5558 53.3804C19.1481 52.612 19.1481 51.3708 18.5558 50.6024L11.5854 41.5591C11.0084 40.8104 10.0364 40.8104 9.44419 41.5788Z" fill="#A4A4A4"/>
<path d="M18.5558 100.421C19.1481 99.6528 19.1481 98.4116 18.5558 97.6432L12.6636 89.9988L18.5558 82.3543C19.1481 81.5859 19.1481 80.3447 18.5558 79.5763C17.9636 78.8079 17.0068 78.8079 16.4146 79.5763L9.44419 88.6196C8.85194 89.388 8.85194 90.6292 9.44419 91.3976L16.4146 100.441C16.9916 101.19 17.9636 101.19 18.5558 100.421Z" fill="#64709C"/>
<path d="M9.44419 117.579C8.85194 118.347 8.85194 119.588 9.44419 120.357L15.3364 128.001L9.44419 135.646C8.85194 136.414 8.85194 137.655 9.44419 138.424C10.0364 139.192 10.9932 139.192 11.5854 138.424L18.5558 129.38C19.1481 128.612 19.1481 127.371 18.5558 126.602L11.5854 117.559C11.0084 116.81 10.0364 116.81 9.44419 117.579Z" fill="#64709C"/>
</svg>

<svg width="28" height="142" fill="none" xmlns="http://www.w3.org/2000/svg"><path d="M18.556 24.421c.592-.768.592-2.01 0-2.778L12.664 14l5.892-7.645c.592-.768.592-2.01 0-2.778-.592-.768-1.55-.768-2.141 0l-6.97 9.044c-.593.768-.593 2.01 0 2.778l6.97 9.043c.577.749 1.549.749 2.14-.02zM9.444 41.579c-.592.768-.592 2.01 0 2.778L15.336 52l-5.892 7.645c-.592.768-.592 2.01 0 2.778.592.768 1.55.768 2.141 0l6.97-9.044c.593-.768.593-2.01 0-2.778l-6.97-9.043c-.577-.749-1.549-.749-2.14.02z" fill="#A4A4A4"/><path d="M18.556 100.421c.592-.768.592-2.01 0-2.778L12.664 90l5.892-7.645c.592-.768.592-2.01 0-2.778-.592-.768-1.55-.768-2.141 0l-6.97 9.044c-.593.768-.593 2.01 0 2.778l6.97 9.043c.577.749 1.549.749 2.14-.02zm-9.112 17.158c-.592.768-.592 2.009 0 2.778l5.892 7.644-5.892 7.645c-.592.768-.592 2.009 0 2.778.592.768 1.55.768 2.141 0l6.97-9.044c.593-.768.593-2.009 0-2.778l-6.97-9.043c-.577-.749-1.549-.749-2.14.02z" fill="#64709C"/></svg>
